_includes/icons/ios-t-shirt.svg

<svg fill="#666" height="50" viewBox="0 0 50 50" width="50" xmlns="http://www.w3.org/2000/svg"><path d="m25 0c-3.40625 0-5.53125.753906-6.15625 1-.03125.007813-.0625.019531-.09375.03125-.054687.023438-.1875.0625-.1875.0625l-6.75 1.78125c-.0625.015625-.128906.035156-.1875.0625-.011719.003906-.042969.023438-.0625.03125-.011719.011719-.019531.019531-.03125.03125-.644531.210938-3.46875 1.242188-5.03125 3.84375-2.390625 3.980469-6.3125 10.40625-6.3125 10.40625-.292969.464844-.1523437 1.082031.3125 1.375l6.59375 4.0625c.464844.292969 1.082031.152344 1.375-.3125l2.53125-3.96875v29.59375c0 .550781.449219 1 1 1h26c.550781 0 1-.449219 1-1l-.0625-23.625.03125-6 2.5625 4c.292969.464844.910156.605469 1.375.3125l6.59375-4.0625c.464844-.292969.605469-.910156.3125-1.375 0 0-3.921875-6.425781-6.3125-10.40625-1.582031-2.640625-4.476562-3.65625-5.0625-3.84375-.011719-.011719-.019531-.019531-.03125-.03125-.03125-.011719-.113281-.058594-.125-.0625-.019531 0-.042969 0-.0625 0-.011719-.011719-.019531-.019531-.03125-.03125h-.0625c-.03125-.011719-.0625-.023437-.09375-.03125l-6.59375-1.75s-.132812-.039062-.1875-.0625c-.03125-.011719-.0625-.023437-.09375-.03125-.625-.246094-2.75-1-6.15625-1zm0 2c2.316406 0 3.816406.328125 4.6875.59375-.128906.230469-.300781.480469-.53125.75-.699219.8125-1.855469 1.65625-4.15625 1.65625s-3.457031-.84375-4.15625-1.65625c-.230469-.269531-.402344-.519531-.53125-.75.871094-.265625 2.371094-.59375 4.6875-.59375zm-6.59375 1.1875c.199219.4375.457031.945313.90625 1.46875 1.019531 1.1875 2.863281 2.34375 5.6875 2.34375s4.667969-1.15625 5.6875-2.34375c.449219-.523437.707031-1.03125.90625-1.46875l5.15625 1.375c-.4375 1.292969-1.5 5.101563.21875 10.34375-.003906.09375.007813.191406.03125.28125l-.0625 9.1875.0625 22.625h-24v-31.71875c.003906-.042969.003906-.082031 0-.125 2.425781-4.460937.820313-9.175781.28125-10.59375zm-6.90625 2.03125c.550781 1.886719 1.429688 6.066406-.25 9.09375-.035156.050781-.066406.101563-.09375.15625-.003906.007813.003906.023438 0 .03125-.023437.03125-.042969.0625-.0625.09375l-3.78125 5.90625-4.90625-3.03125c.554688-.910156 3.609375-5.925781 5.8125-9.59375.8125-1.355469 2.320313-2.199219 3.28125-2.65625zm27.03125 0c.960938.460938 2.445313 1.3125 3.25 2.65625 2.203125 3.667969 5.257813 8.683594 5.8125 9.59375l-4.90625 3.03125-3.78125-5.9375c-1.441406-4.117187-.824219-7.683594-.375-9.34375z"/></svg>

<svg xmlns="http://www.w3.org/2000/svg" viewBox="0 0 50 50" width="50" height="50" fill="#666"><path d="M 25 0 C 21.59375 0 19.46875 0.753906 18.84375 1 C 18.8125 1.007813 18.78125 1.019531 18.75 1.03125 C 18.695313 1.054688 18.5625 1.09375 18.5625 1.09375 L 11.8125 2.875 C 11.75 2.890625 11.683594 2.910156 11.625 2.9375 C 11.613281 2.941406 11.582031 2.960938 11.5625 2.96875 C 11.550781 2.980469 11.542969 2.988281 11.53125 3 C 10.886719 3.210938 8.0625 4.242188 6.5 6.84375 C 4.109375 10.824219 0.1875 17.25 0.1875 17.25 C -0.105469 17.714844 0.0351563 18.332031 0.5 18.625 L 7.09375 22.6875 C 7.558594 22.980469 8.175781 22.839844 8.46875 22.375 L 11 18.40625 L 11 48 C 11 48.550781 11.449219 49 12 49 L 38 49 C 38.550781 49 39 48.550781 39 48 L 38.9375 24.375 L 38.96875 18.375 L 41.53125 22.375 C 41.824219 22.839844 42.441406 22.980469 42.90625 22.6875 L 49.5 18.625 C 49.964844 18.332031 50.105469 17.714844 49.8125 17.25 C 49.8125 17.25 45.890625 10.824219 43.5 6.84375 C 41.917969 4.203125 39.023438 3.1875 38.4375 3 C 38.425781 2.988281 38.417969 2.980469 38.40625 2.96875 C 38.375 2.957031 38.292969 2.910156 38.28125 2.90625 C 38.261719 2.90625 38.238281 2.90625 38.21875 2.90625 C 38.207031 2.894531 38.199219 2.886719 38.1875 2.875 L 38.125 2.875 C 38.09375 2.863281 38.0625 2.851563 38.03125 2.84375 L 31.4375 1.09375 C 31.4375 1.09375 31.304688 1.054688 31.25 1.03125 C 31.21875 1.019531 31.1875 1.007813 31.15625 1 C 30.53125 0.753906 28.40625 0 25 0 Z M 25 2 C 27.316406 2 28.816406 2.328125 29.6875 2.59375 C 29.558594 2.824219 29.386719 3.074219 29.15625 3.34375 C 28.457031 4.15625 27.300781 5 25 5 C 22.699219 5 21.542969 4.15625 20.84375 3.34375 C 20.613281 3.074219 20.441406 2.824219 20.3125 2.59375 C 21.183594 2.328125 22.683594 2 25 2 Z M 18.40625 3.1875 C 18.605469 3.625 18.863281 4.132813 19.3125 4.65625 C 20.332031 5.84375 22.175781 7 25 7 C 27.824219 7 29.667969 5.84375 30.6875 4.65625 C 31.136719 4.132813 31.394531 3.625 31.59375 3.1875 L 36.75 4.5625 C 36.3125 5.855469 35.25 9.664063 36.96875 14.90625 C 36.964844 15 36.976563 15.097656 37 15.1875 L 36.9375 24.375 L 37 47 L 13 47 L 13 15.28125 C 13.003906 15.238281 13.003906 15.199219 13 15.15625 C 15.425781 10.695313 13.820313 5.980469 13.28125 4.5625 Z M 11.5 5.21875 C 12.050781 7.105469 12.929688 11.285156 11.25 14.3125 C 11.214844 14.363281 11.183594 14.414063 11.15625 14.46875 C 11.152344 14.476563 11.160156 14.492188 11.15625 14.5 C 11.132813 14.53125 11.113281 14.5625 11.09375 14.59375 L 7.3125 20.5 L 2.40625 17.46875 C 2.960938 16.558594 6.015625 11.542969 8.21875 7.875 C 9.03125 6.519531 10.539063 5.675781 11.5 5.21875 Z M 38.53125 5.21875 C 39.492188 5.679688 40.976563 6.53125 41.78125 7.875 C 43.984375 11.542969 47.039063 16.558594 47.59375 17.46875 L 42.6875 20.5 L 38.90625 14.5625 C 37.464844 10.445313 38.082031 6.878906 38.53125 5.21875 Z"/></svg>
